assets/symbols/mulberry/day.svg

<svg height="850.394" viewBox="0 0 850.394 850.394" width="850.394" xmlns="http://www.w3.org/2000/svg"><path d="m422.62 248.98c59.14 0 107.07 47.94 107.07 107.08 0 59.13-47.931 107.06-107.07 107.06-59.14 0-107.07-47.93-107.07-107.06 0-59.14 47.93-107.08 107.07-107.08z" fill="#fbed24"/><g fill="none"><path d="m774.31 670.64h-699.62m455-314.58c0 59.13-47.931 107.06-107.07 107.06-59.14 0-107.07-47.93-107.07-107.06 0-59.14 47.93-107.08 107.07-107.08s107.07 47.94 107.07 107.08zm-107.91-126.57v-81.46m-64.97 97.31-45-67.9m-1.65 117.95-73.79-34.48m252.7-16.86 44.99-67.91m1.64 117.95 73.81-34.48m-123.12 208.05 45.01 67.9m1.64-117.96 73.8 34.49m-252.7 16.87-45 67.9m-1.64-117.95-73.81 34.48m61.31-96.07h-81.45m416.88 0h-81.45m-127.2 205.08v-81.46" stroke="#231f20" stroke-width="21"/><path d="m0 0h850.394v850.394h-850.394z"/></g></svg>

<svg xmlns="http://www.w3.org/2000/svg" width="850.394" height="850.394" viewBox="0 0 850.394 850.394" overflow="visible"><path d="M422.62 248.98c59.14 0 107.07 47.94 107.07 107.08 0 59.13-47.931 107.06-107.07 107.06-59.14 0-107.07-47.93-107.07-107.06 0-59.14 47.93-107.08 107.07-107.08z" fill="#fbed24"/><g fill="none" stroke="#231f20" stroke-width="21"><path d="M774.31 670.64H74.69M529.69 356.06c0 59.13-47.931 107.06-107.07 107.06-59.14 0-107.07-47.93-107.07-107.06 0-59.14 47.93-107.08 107.07-107.08 59.14 0 107.07 47.94 107.07 107.08zM421.78 229.49v-81.46M356.81 245.34l-45-67.9M310.16 295.39l-73.79-34.48M489.07 244.05l44.99-67.91M535.7 294.09l73.81-34.48M486.39 467.66l45.01 67.9M533.04 417.6l73.8 34.49M354.14 468.96l-45 67.9M307.5 418.91l-73.81 34.48M295 357.32h-81.45M630.43 357.32h-81.45M421.78 562.4v-81.46"/></g><path fill="none" d="M0 0h850.394v850.394H0z"/></svg>
